azure-patterns/svg-devops-code-search.svg

<svg xmlns="http://www.w3.org/2000/svg" viewBox="0 0 80 80">
                                
                            
    <rect width="80" height="80" fill="black" fill-opacity="0"></rect>
    <circle cx="40" cy="40" r="40" fill="#FFD2BE" fill-opacity="0.2"></circle>
    <path d="M44.6875 25C45.6348 25 46.5479 25.1221 47.4268 25.3662C48.3057 25.6104 49.126 25.957 49.8877 26.4062C50.6494 26.8555 51.3428 27.3975 51.9678 28.0322C52.6025 28.6572 53.1445 29.3506 53.5938 30.1123C54.043 30.874 54.3896 31.6943 54.6338 32.5732C54.8779 33.4521 55 34.3652 55 35.3125C55 36.2598 54.8779 37.1729 54.6338 38.0518C54.3896 38.9307 54.043 39.751 53.5938 40.5127C53.1445 41.2744 52.6025 41.9727 51.9678 42.6074C51.3428 43.2324 50.6494 43.7695 49.8877 44.2188C49.126 44.668 48.3057 45.0146 47.4268 45.2588C46.5479 45.5029 45.6348 45.625 44.6875 45.625C43.4668 45.625 42.2949 45.4199 41.1719 45.0098C40.0586 44.5996 39.0332 44.0088 38.0957 43.2373L26.5967 54.7217C26.4111 54.9072 26.1914 55 25.9375 55C25.6836 55 25.4639 54.9072 25.2783 54.7217C25.0928 54.5361 25 54.3164 25 54.0625C25 53.8086 25.0928 53.5889 25.2783 53.4033L36.7627 41.9043C35.9912 40.9668 35.4004 39.9414 34.9902 38.8281C34.5801 37.7051 34.375 36.5332 34.375 35.3125C34.375 34.3652 34.4971 33.4521 34.7412 32.5732C34.9854 31.6943 35.332 30.874 35.7812 30.1123C36.2305 29.3506 36.7676 28.6572 37.3926 28.0322C38.0273 27.3975 38.7256 26.8555 39.4873 26.4062C40.249 25.957 41.0693 25.6104 41.9482 25.3662C42.8271 25.1221 43.7402 25 44.6875 25ZM44.6875 43.75C45.8496 43.75 46.9434 43.5303 47.9688 43.0908C48.9941 42.6416 49.8877 42.0361 50.6494 41.2744C51.4111 40.5127 52.0117 39.6191 52.4512 38.5938C52.9004 37.5684 53.125 36.4746 53.125 35.3125C53.125 34.1504 52.9004 33.0566 52.4512 32.0312C52.0117 31.0059 51.4111 30.1123 50.6494 29.3506C49.8877 28.5889 48.9941 27.9883 47.9688 27.5488C46.9434 27.0996 45.8496 26.875 44.6875 26.875C43.5254 26.875 42.4316 27.0996 41.4062 27.5488C40.3809 27.9883 39.4873 28.5889 38.7256 29.3506C37.9639 30.1123 37.3584 31.0059 36.9092 32.0312C36.4697 33.0566 36.25 34.1504 36.25 35.3125C36.25 36.4746 36.4697 37.5684 36.9092 38.5938C37.3584 39.6191 37.9639 40.5127 38.7256 41.2744C39.4873 42.0361 40.3809 42.6416 41.4062 43.0908C42.4316 43.5303 43.5254 43.75 44.6875 43.75Z" fill="#D83B01"></path>
</svg>

<svg xmlns="http://www.w3.org/2000/svg" viewBox="0 0 80 80"><path fill="none" d="M0 0h80v80H0z"/><circle cx="40" cy="40" r="40" fill="#FFD2BE" fill-opacity=".2"/><path d="M44.688 25a10.189 10.189 0 0 1 5.2 1.406c.761.45 1.455.992 2.08 1.626a10.134 10.134 0 0 1 1.626 2.08 10.191 10.191 0 0 1 1.406 5.2 10.189 10.189 0 0 1-1.406 5.2 10.49 10.49 0 0 1-3.706 3.707 10.191 10.191 0 0 1-5.2 1.406c-1.221 0-2.393-.205-3.516-.615a10.557 10.557 0 0 1-3.076-1.773l-11.5 11.485a.901.901 0 0 1-.659.278.901.901 0 0 1-.659-.278.901.901 0 0 1-.278-.66c0-.253.093-.473.278-.659l11.485-11.499a10.557 10.557 0 0 1-1.773-3.076 10.169 10.169 0 0 1-.615-3.516 10.189 10.189 0 0 1 1.406-5.2c.45-.761.987-1.455 1.612-2.08a10.49 10.49 0 0 1 2.094-1.626 10.191 10.191 0 0 1 5.2-1.406zm0 18.75a8.24 8.24 0 0 0 3.28-.66 8.672 8.672 0 0 0 2.681-1.816 8.467 8.467 0 0 0 1.802-2.68c.45-1.026.674-2.12.674-3.282a8.087 8.087 0 0 0-.674-3.28 8.467 8.467 0 0 0-1.802-2.681 8.467 8.467 0 0 0-2.68-1.802 8.087 8.087 0 0 0-3.282-.674 8.087 8.087 0 0 0-3.28.674 8.467 8.467 0 0 0-2.681 1.802 8.672 8.672 0 0 0-1.817 2.68 8.24 8.24 0 0 0-.659 3.282c0 1.162.22 2.255.66 3.28a8.672 8.672 0 0 0 1.816 2.681 8.672 8.672 0 0 0 2.68 1.817 8.24 8.24 0 0 0 3.282.659z" fill="#D83B01"/></svg>
